include/LD/assets/icons/doctype/quip_slide.svg

<?xml version="1.0"?><svg xmlns="http://www.w3.org/2000/svg" width="56" height="64" viewBox="0 0 56 64"><title></title><desc></desc><path fill-rule="evenodd" clip-rule="evenodd" fill="#8D3DF5" d="m0 5.1v53.7c0 2.9 2.3 5.2 5.1 5.2h45.7c2.8 0 5.1-2.3 5.1-5.1v-37.9l-18.9-21h-31.9c-2.8 0-5.1 2.3-5.1 5.1z"></path><path opacity=".5" fill="#fff" enable-background="new" d="m37 0l19 21h-13.9c-2.8 0-5.2-2.3-5.2-5.2l0.1-15.8z"></path><path opacity=".5" fill="#6D2BD6" enable-background="new" d="m37 15.9v1c0 2.8 2.3 5.2 5.2 5.2h13.8v-1h-13.9c-2.8-0.1-5.1-2.4-5.1-5.2z"></path><path fill="#fff" d="m23.5 46.7h-6.9c-0.4 0-0.8 0.3-0.8 0.8s0.3 0.8 0.8 0.8h6.9c0.4 0 0.8-0.3 0.8-0.8s-0.4-0.8-0.8-0.8z"></path><path fill="#fff" d="m16.5 41.3h6.9c0.4 0 0.8-0.3 0.8-0.8 0-0.4-0.3-0.8-0.8-0.8h-6.9c-0.4 0-0.8 0.3-0.8 0.8 0.1 0.5 0.4 0.8 0.8 0.8z m-2.3 1.9c-0.4 0-0.8 0.3-0.8 0.8 0 0.4 0.3 0.8 0.8 0.8h11.5c0.4 0 0.8-0.3 0.8-0.8 0-0.4-0.3-0.8-0.8-0.8h-11.5z m12.6-6.5c-3.9-3.7-10.1-3.6-13.9 0.2-3.8 3.8-3.9 10-0.2 13.9 1.9 2 4.5 3.2 7.3 3.2h9.2c0.4 0 0.8-0.3 0.8-0.8v-9.2c0-2.8-1.1-5.4-3.2-7.3z m-6.8 15.8c-2.3 0-4.6-1-6.2-2.7-1.6-1.7-2.4-4-2.3-6.3 0.3-4.3 3.7-7.7 7.9-7.9h0.5c4.7 0 8.5 3.8 8.5 8.5v8.4h-8.4z"></path></svg>

<svg xmlns="http://www.w3.org/2000/svg" x="0px" y="0px"
	 width="56px" height="64px" viewBox="0 0 56 64" enable-background="new 0 0 56 64" xml:space="preserve">
<path fill-rule="evenodd" clip-rule="evenodd" fill="#8D3DF5" d="M0,5.1v53.7C0,61.7,2.3,64,5.1,64h45.7
	c2.8,0,5.1-2.3,5.1-5.1V21L37,0H5.1C2.3,0,0,2.3,0,5.1z"/>
<path opacity="0.5" fill="#FFFFFF" enable-background="new    " d="M37,0l19,21H42.1c-2.8,0-5.2-2.3-5.2-5.2L37,0z"/>
<g>
	<path opacity="0.5" fill="#6D2BD6" enable-background="new    " d="M37,15.9v1c0,2.8,2.3,5.2,5.2,5.2H56v-1H42.1
		C39.3,21,37,18.7,37,15.9z"/>
</g>
<path fill="#FFFFFF" d="M23.5,46.7h-6.9c-0.4,0-0.8,0.3-0.8,0.8s0.3,0.8,0.8,0.8h6.9c0.4,0,0.8-0.3,0.8-0.8
	S23.9,46.7,23.5,46.7z"/>
<path fill="#FFFFFF" d="M16.5,41.3h6.9c0.4,0,0.8-0.3,0.8-0.8c0-0.4-0.3-0.8-0.8-0.8h-6.9c-0.4,0-0.8,0.3-0.8,0.8
	C15.8,41,16.1,41.3,16.5,41.3z"/>
<path fill="#FFFFFF" d="M14.2,43.2c-0.4,0-0.8,0.3-0.8,0.8c0,0.4,0.3,0.8,0.8,0.8h11.5c0.4,0,0.8-0.3,0.8-0.8c0-0.4-0.3-0.8-0.8-0.8
	H14.2z"/>
<path fill="#FFFFFF" d="M26.8,36.7c-3.9-3.7-10.1-3.6-13.9,0.2c-3.8,3.8-3.9,10-0.2,13.9c1.9,2,4.5,3.2,7.3,3.2h9.2
	c0.4,0,0.8-0.3,0.8-0.8V44C30,41.2,28.9,38.6,26.8,36.7z M20,52.5c-2.3,0-4.6-1-6.2-2.7c-1.6-1.7-2.4-4-2.3-6.3
	c0.3-4.3,3.7-7.7,7.9-7.9c0.2,0,0.4,0,0.5,0c4.7,0,8.5,3.8,8.5,8.5v8.4H20z"/>
</svg>
